build/images/logo.svg

<svg width="107" height="24" viewBox="0 0 107 24" fill="none" xmlns="http://www.w3.org/2000/svg">
<path d="M38.3788 9.69054C38.3788 10.6201 38.1648 11.4734 37.7367 12.2505C37.3087 13.0124 36.6514 13.6296 35.7648 14.102C34.8782 14.5743 33.7775 14.8105 32.4629 14.8105H30.0323V20.5705H26.1113V4.52482H32.4629C33.747 4.52482 34.8323 4.74577 35.7189 5.18768C36.6055 5.62958 37.2705 6.23911 37.7138 7.01625C38.1571 7.79339 38.3788 8.68482 38.3788 9.69054ZM32.1648 11.702C32.9138 11.702 33.4718 11.5267 33.8387 11.1763C34.2056 10.8258 34.389 10.3305 34.389 9.69054C34.389 9.05054 34.2056 8.5553 33.8387 8.20482C33.4718 7.85435 32.9138 7.67911 32.1648 7.67911H30.0323V11.702H32.1648Z" fill="#262626"/>
<path d="M44.3411 3.65625V20.5705H40.4201V3.65625H44.3411Z" fill="#262626"/>
<path d="M46.403 14.1705C46.403 12.8601 46.6475 11.7096 47.1367 10.7191C47.6412 9.72863 48.3214 8.96673 49.1775 8.43339C50.0335 7.90006 50.9889 7.63339 52.0437 7.63339C52.9456 7.63339 53.7329 7.81625 54.4055 8.18196C55.0934 8.54768 55.6207 9.02768 55.9876 9.62196V7.81625H59.9086V20.5705H55.9876V18.7648C55.6055 19.3591 55.0704 19.8391 54.3825 20.2048C53.7099 20.5705 52.9227 20.7534 52.0208 20.7534C50.9813 20.7534 50.0335 20.4867 49.1775 19.9534C48.3214 19.4048 47.6412 18.6353 47.1367 17.6448C46.6475 16.6391 46.403 15.481 46.403 14.1705ZM55.9876 14.1934C55.9876 13.2182 55.7125 12.4486 55.1622 11.8848C54.6271 11.321 53.9698 11.0391 53.1902 11.0391C52.4106 11.0391 51.7456 11.321 51.1953 11.8848C50.6603 12.4334 50.3927 13.1953 50.3927 14.1705C50.3927 15.1458 50.6603 15.9229 51.1953 16.502C51.7456 17.0658 52.4106 17.3477 53.1902 17.3477C53.9698 17.3477 54.6271 17.0658 55.1622 16.502C55.7125 15.9382 55.9876 15.1686 55.9876 14.1934Z" fill="#262626"/>
<path d="M70.5414 7.67911C72.0395 7.67911 73.2319 8.16673 74.1185 9.14196C75.0204 10.102 75.4713 11.4277 75.4713 13.1191V20.5705H71.5733V13.6448C71.5733 12.7915 71.3516 12.1286 70.9083 11.6562C70.465 11.1839 69.8688 10.9477 69.1198 10.9477C68.3707 10.9477 67.7746 11.1839 67.3313 11.6562C66.8879 12.1286 66.6663 12.7915 66.6663 13.6448V20.5705H62.7453V7.81625H66.6663V9.50768C67.0637 8.94387 67.5988 8.50196 68.2714 8.18196C68.944 7.84673 69.7007 7.67911 70.5414 7.67911Z" fill="#262626"/>
<path d="M85.3272 17.2563V20.5705H83.3323C81.9107 20.5705 80.8024 20.2277 80.0075 19.542C79.2126 18.841 78.8152 17.7058 78.8152 16.1363V11.062H77.2559V7.81625H78.8152V4.70768H82.7361V7.81625H85.3043V11.062H82.7361V16.182C82.7361 16.5629 82.8279 16.8372 83.0113 17.0048C83.1947 17.1724 83.5005 17.2563 83.9285 17.2563H85.3272Z" fill="#262626"/>
<path d="M91.4323 4.52482V20.5705H87.5113V4.52482H91.4323Z" fill="#262626"/>
<path d="M102.07 7.67911C103.568 7.67911 104.76 8.16673 105.647 9.14196C106.549 10.102 107 11.4277 107 13.1191V20.5705H103.102V13.6448C103.102 12.7915 102.88 12.1286 102.437 11.6562C101.993 11.1839 101.397 10.9477 100.648 10.9477C99.8992 10.9477 99.3031 11.1839 98.8598 11.6562C98.4164 12.1286 98.1948 12.7915 98.1948 13.6448V20.5705H94.2738V7.81625H98.1948V9.50768C98.5922 8.94387 99.1273 8.50196 99.7999 8.18196C100.472 7.84673 101.229 7.67911 102.07 7.67911Z" fill="#262626"/>
<path d="M9.17199 0C11.517 1.33575 13.0871 3.34385 13.8824 5.57997C11.8587 6.54881 10.2009 8.15628 9.17199 10.1403C8.14307 8.15628 6.4853 6.54881 4.46155 5.57997C5.25685 3.34385 6.827 1.33575 9.17199 0Z" fill="#04BF94"/>
<path d="M0 5.71429C5.06552 5.71429 9.17193 9.80768 9.17193 14.8571C9.17193 9.80768 13.2783 5.71429 18.3439 5.71429V14.8571C18.3439 19.9066 14.2374 24 9.17193 24C4.10641 24 0 19.9066 0 14.8571V5.71429Z" fill="#04BF94"/>
</svg>

<svg width="107" height="24" fill="none" xmlns="http://www.w3.org/2000/svg"><path d="M38.379 9.69c0 .93-.214 1.783-.642 2.56-.428.762-1.086 1.38-1.972 1.852-.887.472-1.987.708-3.302.708h-2.43v5.76H26.11V4.525h6.352c1.284 0 2.37.22 3.256.663.886.442 1.551 1.051 1.995 1.828.443.777.665 1.669.665 2.675zm-6.214 2.012c.749 0 1.307-.175 1.674-.526.367-.35.55-.845.55-1.485 0-.64-.183-1.136-.55-1.486-.367-.35-.925-.526-1.674-.526h-2.133v4.023h2.133zm12.176-8.046v16.915h-3.92V3.655h3.92zm2.062 10.514c0-1.31.245-2.46.734-3.45.504-.991 1.184-1.753 2.04-2.287.856-.533 1.812-.8 2.867-.8.902 0 1.689.183 2.362.549.687.366 1.215.846 1.582 1.44V7.816h3.92v12.755h-3.92v-1.806c-.383.594-.918 1.074-1.605 1.44-.673.366-1.46.548-2.362.548a5.27 5.27 0 01-2.843-.8c-.857-.548-1.537-1.318-2.041-2.308-.49-1.006-.734-2.164-.734-3.474zm9.585.023c0-.975-.276-1.744-.826-2.308a2.613 2.613 0 00-1.972-.846c-.78 0-1.444.282-1.995.846-.535.548-.802 1.31-.802 2.286 0 .975.267 1.752.802 2.331.55.564 1.216.846 1.995.846.78 0 1.437-.282 1.972-.846.55-.564.826-1.333.826-2.309zM70.541 7.68c1.499 0 2.69.487 3.578 1.462.901.96 1.352 2.286 1.352 3.977v7.451h-3.898v-6.925c0-.854-.221-1.516-.665-1.989-.443-.472-1.04-.708-1.788-.708-.75 0-1.345.236-1.789.708-.443.473-.665 1.135-.665 1.989v6.925h-3.92V7.816h3.92v1.692a4.05 4.05 0 011.605-1.326c.673-.335 1.43-.503 2.27-.503zm14.786 9.576v3.314h-1.995c-1.421 0-2.53-.342-3.325-1.028-.794-.701-1.192-1.836-1.192-3.406v-5.074h-1.56V7.816h1.56V4.708h3.921v3.108h2.568v3.246h-2.568v5.12c0 .38.092.655.275.823.184.167.49.251.918.251h1.398zm6.105-12.731V20.57h-3.92V4.525h3.92zM102.07 7.68c1.498 0 2.69.487 3.577 1.462.902.96 1.353 2.286 1.353 3.977v7.451h-3.898v-6.925c0-.854-.222-1.516-.665-1.989-.444-.472-1.04-.708-1.789-.708-.749 0-1.345.236-1.788.708-.444.473-.665 1.135-.665 1.989v6.925h-3.921V7.816h3.92v1.692A4.047 4.047 0 0199.8 8.182c.672-.335 1.429-.503 2.27-.503z" fill="#262626"/><path d="M9.172 0c2.345 1.336 3.915 3.344 4.71 5.58a10.347 10.347 0 00-4.71 4.56 10.347 10.347 0 00-4.71-4.56C5.257 3.344 6.827 1.336 9.172 0z" fill="#04BF94"/><path d="M0 5.714c5.066 0 9.172 4.094 9.172 9.143 0-5.05 4.106-9.143 9.172-9.143v9.143c0 5.05-4.107 9.143-9.172 9.143C4.106 24 0 19.907 0 14.857V5.714z" fill="#04BF94"/></svg>
